svgs/svgs_iconset/bus_15.svg

<?xml version="1.0" encoding="UTF-8"?>
<svg width="19" height="19" version="1.1" viewBox="0 0 19 19" xmlns="http://www.w3.org/2000/svg">
 <title>bus_15.svg</title>
 <rect width="19" height="19" fill="none"/>
 <rect width="19" height="19" rx="0" ry="0" fill="#1976d2"/>
 <path transform="translate(2 2)" d="m4 0c-1.3636 0-3 0.7433-3 2.7461v9.2539s0 1 1 1v1s0 1 1 1 1-1 1-1v-1h7v1s0 1 1 1 1-1 1-1v-1s1 0 1-1v-9.2539c0-2.0455-1.236-2.7461-2.5996-2.7461h-7.4004zm0.25 1.5h6.5c0.1385 0 0.25 0.1115 0.25 0.25s-0.1115 0.25-0.25 0.25h-6.5c-0.1385 0-0.25-0.1115-0.25-0.25s0.1115-0.25 0.25-0.25zm-1.25 1.5h9c1 0 1 0.9668 1 0.9668v3.0332s0 1-1 1h-9c-1 0-1-1-1-1v-3s0-1 1-1zm0 7c0.5523 0 1 0.4477 1 1s-0.4477 1-1 1-1-0.4477-1-1 0.4477-1 1-1zm9 0c0.5523 0 1 0.4477 1 1s-0.4477 1-1 1-1-0.4477-1-1 0.4477-1 1-1z" fill="#fff"/>
</svg>

<svg xmlns="http://www.w3.org/2000/svg" viewBox="0 0 19 19" height="19" width="19"><title>bus_15.svg</title><rect fill="none" x="0" y="0" width="19" height="19"></rect><rect x="0" y="0" width="19" height="19" rx="0" ry="0" fill="#4898ff"></rect><path fill="#fff" transform="translate(2 2)" d="M4,0C2.6364,0,1,0.7433,1,2.7461v5.4531V12c0,0,0,1,1,1v1c0,0,0,1,1,1s1-1,1-1v-1h7v1c0,0,0,1,1,1s1-1,1-1v-1
	c0,0,1,0,1-1V2.7461C14,0.7006,12.764,0,11.4004,0H4z M4.25,1.5h6.5C10.8885,1.5,11,1.6115,11,1.75S10.8885,2,10.75,2h-6.5
	C4.1115,2,4,1.8885,4,1.75S4.1115,1.5,4.25,1.5z M3,3h9c1,0,1,0.9668,1,0.9668V7c0,0,0,1-1,1H3C2,8,2,7,2,7V4C2,4,2,3,3,3z M3,10
	c0.5523,0,1,0.4477,1,1s-0.4477,1-1,1s-1-0.4477-1-1S2.4477,10,3,10z M12,10c0.5523,0,1,0.4477,1,1s-0.4477,1-1,1s-1-0.4477-1-1
	S11.4477,10,12,10z"></path></svg>
